src/assets/media/svg/sprite/kununu.svg

<svg width="24" height="24" viewBox="0 0 24 24"  xmlns="http://www.w3.org/2000/svg">
<path fill-rule="evenodd" clip-rule="evenodd" d="M19.999 18.3259C19.999 16.4289 19.2795 14.6992 18.1034 13.3905C19.2482 12.0887 19.9453 10.3841 19.9453 8.5181V7.27847H19.9296C19.8807 6.99086 19.6305 6.77039 19.3274 6.77039H15.6612C15.3601 6.77039 15.1118 6.99186 15.062 7.27847L14.9847 8.5181C14.9847 9.84692 13.9025 10.9302 12.57 10.9302V10.9453H11.3293C10.4749 10.9453 9.65465 11.0946 8.89014 11.3621V0.611299C8.89014 0.276588 8.61738 0 8.27814 0H4.61102C4.27374 0 4 0.276588 4 0.611299V23.3877C4 23.7244 4.27276 24 4.61102 24H8.30356C8.64182 24 8.91556 23.7244 8.91556 23.3877V18.3249C8.91556 16.9931 9.99585 15.9098 11.3284 15.9098H12.6237C13.9523 15.9098 15.0365 16.9931 15.0365 18.3249V23.3877C15.0365 23.7244 15.3113 24 15.6476 24H19.3274C19.6686 24 19.9384 23.7244 19.9384 23.3877L20 19.5596V18.3249L19.999 18.3259Z" />
</svg>

<svg xmlns="http://www.w3.org/2000/svg" width="24" height="24"><path fill-rule="evenodd" d="M19.999 18.326c0-1.897-.72-3.627-1.896-4.936a7.36 7.36 0 0 0 1.842-4.872v-1.24h-.015a.61.61 0 0 0-.603-.508h-3.666a.61.61 0 0 0-.599.508l-.077 1.24a2.416 2.416 0 0 1-2.415 2.412v.015h-1.24c-.855 0-1.675.15-2.44.417V.612A.613.613 0 0 0 8.278 0H4.611A.613.613 0 0 0 4 .611v22.777c0 .336.273.612.611.612h3.693a.613.613 0 0 0 .612-.612v-5.063a2.415 2.415 0 0 1 2.412-2.415h1.296a2.42 2.42 0 0 1 2.412 2.415v5.063c0 .336.275.612.612.612h3.68a.61.61 0 0 0 .61-.612L20 19.56v-1.235z" clip-rule="evenodd"/></svg>
